src/images/footer/whatsapp-icon.svg

<svg fill="none" height="20" viewBox="0 0 20 20" width="20" xmlns="http://www.w3.org/2000/svg" xmlns:xlink="http://www.w3.org/1999/xlink"><clipPath id="a"><path d="m0 0h20v20h-20z"/></clipPath><g clip-path="url(#a)"><path d="m17.0732 2.91667c-1.8816-1.875-4.3903-2.91667-7.0384-2.91667-5.50518 0-9.9651148 4.44445-9.9651148 9.93055 0 1.73615.4878048 3.47225 1.3240448 4.93055l-1.39373 5.1389 5.29617-1.3889c1.4634.7639 3.06619 1.1806 4.73863 1.1806 5.5053 0 9.9652-4.4445 9.9652-9.93058-.0697-2.56945-1.0453-5.06945-2.9268-6.94445zm-2.23 10.55553c-.2091.5556-1.1847 1.1111-1.6725 1.1806-.4181.0694-.9756.0694-1.5331-.0695-.3484-.1388-.8362-.2778-1.3937-.5555-2.50871-1.0417-4.1115-3.5417-4.25088-3.75-.13935-.1389-1.04528-1.31947-1.04528-2.56947s.62716-1.80554.83624-2.08333c.20904-.27779.48781-.27779.69685-.27779h.48781c.13936 0 .34843-.06942.5575.41667.20905.48612.69686 1.73612.76655 1.80557.06967.13888.06967.27776 0 .41667-.06969.13888-.13938.27776-.27876.41667-.13936.13888-.27874.34721-.34843.41666-.13938.13888-.27874.27776-.13936.4861.13936.27778.62717 1.04165 1.39372 1.73615.97562.8333 1.74214 1.1111 2.02094 1.25.2787.1388.4181.0694.5575-.0695.1393-.1389.6271-.6944.7665-.9722s.3484-.2083.5575-.1389 1.4634.6944 1.6725.8334c.2787.1388.4181.2083.4878.2777.0697.2083.0697.6945-.1394 1.25z" fill="#fff"/></g></svg>

<svg width="20" height="20" viewBox="0 0 20 20" fill="none" xmlns="http://www.w3.org/2000/svg">
<g id="c2d26c7f-6aaf-48e1-8 1" clip-path="url(#clip0_24_1655)">
<path id="Vector" d="M17.0732 2.91667C15.1916 1.04167 12.6829 0 10.0348 0C4.52962 0 0.0696852 4.44445 0.0696852 9.93055C0.0696852 11.6667 0.55749 13.4028 1.39373 14.8611L0 20L5.29617 18.6111C6.75957 19.375 8.36236 19.7917 10.0348 19.7917C15.5401 19.7917 20 15.3472 20 9.86112C19.9303 7.29167 18.9547 4.79167 17.0732 2.91667ZM14.8432 13.4722C14.6341 14.0278 13.6585 14.5833 13.1707 14.6528C12.7526 14.7222 12.1951 14.7222 11.6376 14.5833C11.2892 14.4445 10.8014 14.3055 10.2439 14.0278C7.73519 12.9861 6.1324 10.4861 5.99302 10.2778C5.85367 10.1389 4.94774 8.95833 4.94774 7.70833C4.94774 6.45833 5.5749 5.90279 5.78398 5.625C5.99302 5.34721 6.27179 5.34721 6.48083 5.34721C6.62021 5.34721 6.82926 5.34721 6.96864 5.34721C7.108 5.34721 7.31707 5.27779 7.52614 5.76388C7.73519 6.25 8.223 7.5 8.29269 7.56945C8.36236 7.70833 8.36236 7.84721 8.29269 7.98612C8.223 8.125 8.15331 8.26388 8.01393 8.40279C7.87457 8.54167 7.73519 8.75 7.6655 8.81945C7.52612 8.95833 7.38676 9.09721 7.52614 9.30555C7.6655 9.58333 8.15331 10.3472 8.91986 11.0417C9.89548 11.875 10.662 12.1528 10.9408 12.2917C11.2195 12.4305 11.3589 12.3611 11.4983 12.2222C11.6376 12.0833 12.1254 11.5278 12.2648 11.25C12.4042 10.9722 12.6132 11.0417 12.8223 11.1111C13.0314 11.1805 14.2857 11.8055 14.4948 11.9445C14.7735 12.0833 14.9129 12.1528 14.9826 12.2222C15.0523 12.4305 15.0523 12.9167 14.8432 13.4722Z" fill="white"/>
</g>
<defs>
<clipPath id="clip0_24_1655">
<rect width="20" height="20" fill="white"/>
</clipPath>
</defs>
</svg>
